apps/scalable/aircrack.svg

<svg xmlns="http://www.w3.org/2000/svg" style="isolation:isolate" width="256" height="256"><defs><filter id="a" width="270.648" height="254.338" x="-7.32" y="2.95" filterUnits="userSpaceOnUse"><feGaussianBlur xmlns="http://www.w3.org/2000/svg" in="SourceGraphic" stdDeviation="4.294"/><feOffset xmlns="http://www.w3.org/2000/svg" dy="4" result="pf_100_offsetBlur"/><feFlood xmlns="http://www.w3.org/2000/svg" flood-opacity=".4"/><feComposite xmlns="http://www.w3.org/2000/svg" in2="pf_100_offsetBlur" operator="in" result="pf_100_dropShadow"/><feBlend xmlns="http://www.w3.org/2000/svg" in="SourceGraphic" in2="pf_100_dropShadow"/></filter></defs><g filter="url(#a)"><linearGradient id="b" x1=".567" x2=".567" y1="1.071" y2="-.071" gradientTransform="matrix(244.648 0 0 228.338 5.676 11.947)" gradientUnits="userSpaceOnUse"><stop offset="0%" stop-color="#a0a0a0"/><stop offset="100%" stop-color="#dfdfdf"/></linearGradient><path fill="url(#b)" d="M165.685 11.947c74.055 0 84.639 10.557 84.639 84.544v59.251c0 73.986-10.584 84.543-84.639 84.543h-75.37c-74.055 0-84.639-10.557-84.639-84.543V96.491c0-73.987 10.584-84.544 84.639-84.544h75.37z"/></g><g opacity=".4"><linearGradient id="c" x1=".517" x2=".517" y2="1"><stop offset="0%" stop-color="#fff"/><stop offset="12.5%" stop-opacity=".098" stop-color="#fff"/><stop offset="92.5%" stop-opacity=".098"/><stop offset="100%" stop-opacity=".498"/></linearGradient><path fill="none" stroke="url(#c)" stroke-linecap="round" stroke-linejoin="round" stroke-width="4.077" d="M165.685 11.947c74.055 0 84.639 10.557 84.639 84.544v59.251c0 73.986-10.584 84.543-84.639 84.543h-75.37c-74.055 0-84.639-10.557-84.639-84.543V96.491c0-73.987 10.584-84.544 84.639-84.544h75.37z" vector-effect="non-scaling-stroke"/></g><path fill="#666" d="M223.388 76.023a112.612 112.612 0 0 0-5.684-8.863c-.145.177-.3.347-.473.501-1.799 2.122-5.402 2.159-7.259.093-12.122-11.671-29.238-17.982-46.044-16.726-13.961.898-27.487 6.912-37.617 16.543-.901.921-2.052 1.677-3.376 1.742-3.319.39-6.388-3.079-5.672-6.326.202-1.165.951-2.135 1.806-2.912 11.861-11.356 27.783-18.33 44.165-19.41 13.02-.938 26.236 1.934 37.789 7.967-23.368-20.385-52.901-26.901-75.348-13.941-30.59 17.662-36.439 64.8-13.063 105.287 23.376 40.488 67.123 58.992 97.713 41.33 30.59-17.659 36.438-64.798 13.063-105.285zm-55.289 43.46c-5.55.192-10.693-4.411-11.179-9.931-.791-5.795 3.74-11.596 9.544-12.265 6.186-1.038 12.464 4.07 12.664 10.344.574 6.15-4.855 11.987-11.029 11.852zm22.791-23.518c-1.75 2.111-5.255 2.254-7.156.275-3.766-3.865-8.981-6.308-14.381-6.603-6.128-.436-12.329 1.985-16.682 6.291-1.07 1.203-2.66 1.941-4.287 1.749-3.778-.265-6.401-5.307-3.798-8.334 5.256-5.7 12.719-9.23 20.41-9.995 9.599-.953 19.524 2.723 26.203 9.675 1.829 1.904 1.617 5.181-.309 6.942zm13.22-14.216c-1.704 2.086-5.141 2.32-7.072.429-6.892-6.795-16.21-11.11-25.871-11.815-11.734-.974-23.721 3.478-32.075 11.745-1.927 2.037-5.515 1.805-7.249-.361-1.869-1.764-2.024-4.992-.23-6.86 8.28-8.284 19.477-13.554 31.123-14.749 15.211-1.655 31.007 3.952 41.771 14.822 1.682 1.921 1.472 5.062-.397 6.789z"/></svg>

<svg xmlns="http://www.w3.org/2000/svg" style="isolation:isolate" width="256" height="256" viewBox="0 0 256 256">
 <defs>
  <filter id="9ScEMnMh5gwpA6qpLAopoESFC93m5mhu" width="270.648" height="254.338" x="-7.32" y="2.95" filterUnits="userSpaceOnUse">
   <feGaussianBlur xmlns="http://www.w3.org/2000/svg" in="SourceGraphic" stdDeviation="4.294"/>
   <feOffset xmlns="http://www.w3.org/2000/svg" dx="0" dy="4" result="pf_100_offsetBlur"/>
   <feFlood xmlns="http://www.w3.org/2000/svg" flood-opacity=".4"/>
   <feComposite xmlns="http://www.w3.org/2000/svg" in2="pf_100_offsetBlur" operator="in" result="pf_100_dropShadow"/>
   <feBlend xmlns="http://www.w3.org/2000/svg" in="SourceGraphic" in2="pf_100_dropShadow" mode="normal"/>
  </filter>
 </defs>
 <g filter="url(#9ScEMnMh5gwpA6qpLAopoESFC93m5mhu)">
  <linearGradient id="_lgradient_309" x1=".567" x2=".567" y1="1.071" y2="-.071" gradientTransform="matrix(244.648,0,0,228.338,5.676,11.947)" gradientUnits="userSpaceOnUse">
   <stop offset="0%" style="stop-color:rgb(160,160,160)"/>
   <stop offset="100%" style="stop-color:rgb(223,223,223)"/>
  </linearGradient>
  <path fill="url(#_lgradient_309)" d="M 165.685 11.947 C 239.74 11.947 250.324 22.504 250.324 96.491 L 250.324 155.742 C 250.324 229.728 239.74 240.285 165.685 240.285 L 90.315 240.285 C 16.26 240.285 5.676 229.728 5.676 155.742 L 5.676 96.491 C 5.676 22.504 16.26 11.947 90.315 11.947 L 165.685 11.947 Z"/>
 </g>
 <g opacity=".4">
  <linearGradient id="_lgradient_310" x1=".517" x2=".517" y1="0" y2="1">
   <stop offset="0%" style="stop-color:rgb(255,255,255)"/>
   <stop offset="12.5%" stop-opacity=".098" style="stop-color:rgb(255,255,255)"/>
   <stop offset="92.5%" stop-opacity=".098" style="stop-color:rgb(0,0,0)"/>
   <stop offset="100%" stop-opacity=".498" style="stop-color:rgb(0,0,0)"/>
  </linearGradient>
  <path fill="none" stroke="url(#_lgradient_310)" stroke-linecap="round" stroke-linejoin="round" stroke-width="4.077" d="M 165.685 11.947 C 239.74 11.947 250.324 22.504 250.324 96.491 L 250.324 155.742 C 250.324 229.728 239.74 240.285 165.685 240.285 L 90.315 240.285 C 16.26 240.285 5.676 229.728 5.676 155.742 L 5.676 96.491 C 5.676 22.504 16.26 11.947 90.315 11.947 L 165.685 11.947 Z" vector-effect="non-scaling-stroke"/>
 </g>
 <path fill="#666666" d="M 223.388 76.023 C 221.607 72.938 219.707 69.983 217.704 67.16 C 217.559 67.337 217.404 67.507 217.231 67.661 C 215.432 69.783 211.829 69.82 209.972 67.754 C 197.85 56.083 180.734 49.772 163.928 51.028 C 149.967 51.926 136.441 57.94 126.311 67.571 C 125.41 68.492 124.259 69.248 122.935 69.313 C 119.616 69.703 116.547 66.234 117.263 62.987 C 117.465 61.822 118.214 60.852 119.069 60.075 C 130.93 48.719 146.852 41.745 163.234 40.665 C 176.254 39.727 189.47 42.599 201.023 48.632 C 177.655 28.247 148.122 21.731 125.675 34.691 C 95.085 52.353 89.236 99.491 112.612 139.978 C 135.988 180.466 179.735 198.97 210.325 181.308 C 240.915 163.649 246.763 116.51 223.388 76.023 Z M 168.099 119.483 C 162.549 119.675 157.406 115.072 156.92 109.552 C 156.129 103.757 160.66 97.956 166.464 97.287 C 172.65 96.249 178.928 101.357 179.128 107.631 C 179.702 113.781 174.273 119.618 168.099 119.483 Z M 190.89 95.965 C 189.14 98.076 185.635 98.219 183.734 96.24 C 179.968 92.375 174.753 89.932 169.353 89.637 C 163.225 89.201 157.024 91.622 152.671 95.928 C 151.601 97.131 150.011 97.869 148.384 97.677 C 144.606 97.412 141.983 92.37 144.586 89.343 C 149.842 83.643 157.305 80.113 164.996 79.348 C 174.595 78.395 184.52 82.071 191.199 89.023 C 193.028 90.927 192.816 94.204 190.89 95.965 Z M 204.11 81.749 C 202.406 83.835 198.969 84.069 197.038 82.178 C 190.146 75.383 180.828 71.068 171.167 70.363 C 159.433 69.389 147.446 73.841 139.092 82.108 C 137.165 84.145 133.577 83.913 131.843 81.747 C 129.974 79.983 129.819 76.755 131.613 74.887 C 139.893 66.603 151.09 61.333 162.736 60.138 C 177.947 58.483 193.743 64.09 204.507 74.96 C 206.189 76.881 205.979 80.022 204.11 81.749 Z"/>
</svg>
